X:1
T:Guideth Me
T:Guideth Me
T:Fred A. Worden
T:Fred A. Worden, 1897
T:Public Domain Courtesy of the Cyber Hymnal™
C:Fred A. Worden
Z:Public Domain
Z:Courtesy of the Cyber Hymnal™
%%score ( 1 2 ) 3
L:1/8
Q:1/4=100
M:4/4
K:Ab
V:1 treble 
V:2 treble 
V:3 bass 
V:1
 [Ec]3 [DB] [CA][DF][CE][A,C] | E6 z2 | [B,E]3 [=DF] [EG][DA][DB][Dc] | [EB]6 z2 | %4
w: 1.~Je- sus, Sav- ior guid- eth|me,|All a- long my pil- grim|way,|
w: 2.~Je- sus, Sav- ior guid- eth|me,|Fills my soul with heav’n- ly|love,|
w: 3.~Je- sus, Sav- ior guid- eth|me,|Till the storms of life are|past,|
 [Ec]3 [DB] [CA][DF][CE][A,C] | E6 z2 | [CF]3 [Fd] [Fc][FB][EA][DG] | [CA]6 z2 || %8
w: To the land of end- less|day,|Je- sus, Sav- ior guid- eth|me.|
w: Sends me bless- ings from a-|bove;|Je- sus, Sav- ior guid- eth|me.|
w: Then re- ceive my soul at|last,|Je- sus, Sav- ior guid- eth|me.|
"^Refrain" [DG]3 [DE] [DB]4 | [CA]3 [CE] [Ec]4 | [Ee]3 [Ed] [Ec][=DB][DA][Dc] | [EB]6 z2 | %12
w: ||||
w: Guid- eth me,|guid- eth me,|All a- long my pil- grim|way,|
w: ||||
 [Ec]3 [DB] [CA][DF][CE][A,C] | E6 z2 | [CF]3 [Fd] [Fc][FB][EA][EG] | [CA]6 z2 |] %16
w: ||||
w: To the land of end- less|day,|Je- sus, Sav- ior guid- eth|me.|
w: ||||
V:2
 x8 | (E2 D2 C2) x2 | x8 | x8 | x8 | (E2 D2 C2) x2 | x8 | x8 || x8 | x8 | x8 | x8 | x8 | %13
 (E2 D2 C2) x2 | x8 | x8 |] %16
V:3
 [A,,A,]3 [A,,A,] [A,,A,][A,,A,][A,,A,][A,,E,] | [C,A,]2 [B,,G,]2 [A,,A,]2 z2 | %2
w: ~ ~ ~ ~ ~ ~|~ ~ ~|
 [B,,G,]3 [B,,B,] [B,,B,][B,,B,][B,,B,][B,,A,] | [E,G,]6 z2 | %4
w: ~ ~ ~ ~ ~ ~|~|
 [A,,A,]3 [A,,A,] [A,,A,][A,,A,][A,,A,][A,,E,] | [C,A,]2 [B,,G,]2 [A,,A,]2 z2 | %6
w: ~ ~ ~ ~ ~ ~|~ ~ ~|
 [F,A,]3 [B,,B,] [C,A,][D,B,][E,C][E,B,] | [A,,A,]6 z2 || z4 [E,G,][E,G,] [E,G,]2 | %9
w: ~ ~ ~ ~ ~ ~|~|Guid- eth me,|
 z4 [A,,A,][A,,A,] [A,,A,]2 | [A,,C]3 [A,,B,] [A,,A,][B,,F,][B,,B,][B,,A,] | [E,G,]6 z2 | %12
w: guid- eth me,|~ ~ ~ ~ ~ ~|~|
 [A,,A,]3 [A,,A,] [A,,A,][A,,A,][A,,A,][A,,E,] | [C,A,]2 [B,,G,]2 [A,,A,]2 z2 | %14
w: ~ ~ ~ ~ ~ ~|end- less day,|
 [F,A,]3 [B,,B,] [C,A,][D,B,][E,C][E,B,] | [A,,A,]6 z2 |] %16
w: ||

